icons/outline/drone-off.svg

<!--
category: Vehicles
tags: [device, fly, aircraft, surveillance, control, autonomous]
version: "1.39"
unicode: "ee7e"
-->
<svg
  xmlns="http://www.w3.org/2000/svg"
  width="24"
  height="24"
  viewBox="0 0 24 24"
  fill="none"
  stroke="currentColor"
  stroke-width="2"
  stroke-linecap="round"
  stroke-linejoin="round"
>
  <path d="M14 14h-4v-4m0 0l-3.5 -3.5m3.457 -.55a3.503 3.503 0 0 0 -2.917 -2.91m-3.02 .989a3.5 3.5 0 0 0 1.98 5.936m8 .035l3.5 -3.5m.5 3.465a3.5 3.5 0 1 0 -3.966 -3.965m-.034 8l3.5 3.5m-3.465 .5a3.5 3.5 0 0 0 5.936 1.98m.987 -3.026a3.503 3.503 0 0 0 -2.918 -2.913m-8.04 -.041l-3.5 3.5m-.5 -3.465a3.5 3.5 0 1 0 3.966 3.965m-6.966 -15l18 18" />
</svg>

<!--
category: Vehicles
tags: [device, fly, aircraft, surveillance, control, autonomous]
version: "1.39"
unicode: "ee7e"
-->
<svg
  xmlns="http://www.w3.org/2000/svg"
  width="24"
  height="24"
  viewBox="0 0 24 24"
  fill="none"
  stroke="currentColor"
  stroke-width="2"
  stroke-linecap="round"
  stroke-linejoin="round"
>
    <path d="M14 14h-4v-4M10 10l-3.5 -3.5M9.957 5.95a3.503 3.503 0 0 0 -2.917 -2.91m-3.02 .989a3.5 3.5 0 0 0 1.98 5.936M14 10l3.5 -3.5M18 9.965a3.5 3.5 0 1 0 -3.966 -3.965M14 14l3.5 3.5M14.035 18a3.5 3.5 0 0 0 5.936 1.98m.987 -3.026a3.503 3.503 0 0 0 -2.918 -2.913M10 14l-3.5 3.5M6 14.035a3.5 3.5 0 1 0 3.966 3.965M3 3l18 18" />
</svg>
